X: 1
T: Freddie's Reel #2   [E]
C: John Morris Rankin
R: reel
S: https://thesession.org/tunes/9424
Z: 2020 edited by John Chambers <jc:trillian.mit.edu>
M: C|
L: 1/8
K: E
[| E2GE FGEF | E2Bc BGFG | B2ce f2ec | B2ce fgfe |
|  c2B2 G2EG | E2GE FGEC | EFGB c2ze | BGFG E3c |]
[| B2GE FGEF | E2Bc BGFG | B2ce f2ec | B2ce fgfe |
|  c2B2 G2EG | E2GE FGEC | EFGB c2zg | fefg e3f |]
|: g2fe f2gf | e2cA B2GA | B2ce f2gf | e2cB GFFG |
|  E2ge f2gf | e2cA B2zc | BEcE B3g  |1 fefg e2ef :|2 fefg e4 |]
